icons/readthedocs.svg

<!--
  - The MIT License (MIT)
  -
  - Copyright (c) 2015-2024 Elior "Mallowigi" Boukhobza
  -
  - Permission is hereby granted, free of charge, to any person obtaining a copy
  - of this software and associated documentation files (the "Software"), to deal
  - in the Software without restriction, including without limitation the rights
  - to use, copy, modify, merge, publish, distribute, sublicense, and/or sell
  - copies of the Software, and to permit persons to whom the Software is
  - furnished to do so, subject to the following conditions:
  -
  - The above copyright notice and this permission notice shall be included in all
  - copies or substantial portions of the Software.
  -
  - THE SOFTWARE IS PROVIDED "AS IS", WITHOUT WARRANTY OF ANY KIND, EXPRESS OR
  - IMPLIED, INCLUDING BUT NOT LIMITED TO THE WARRANTIES OF MERCHANTABILITY,
  - FITNESS FOR A PARTICULAR PURPOSE AND NONINFRINGEMENT. IN NO EVENT SHALL THE
  - AUTHORS OR COPYRIGHT HOLDERS BE LIABLE FOR ANY CLAIM, DAMAGES OR OTHER
  - LIABILITY, WHETHER IN AN ACTION OF CONTRACT, TORT OR OTHERWISE, ARISING FROM,
  - OUT OF OR IN CONNECTION WITH THE SOFTWARE OR THE USE OR OTHER DEALINGS IN THE
  - SOFTWARE.
  -
  -->

<svg version="1.1" xmlns="http://www.w3.org/2000/svg" viewBox="0 0 402 512" width="16px" height="16px">
  <path fill="#1E88E5" data-iconColor="ReadtheDocs"
        d="M13.9634323,511.7172852c123.1425095-29.5710144,248.4763794-36.7237244,375.0788574-25.6740112c6.9842529,0.8193054,12.9680481-5.3848572,12.9577026-11.322998V42.6240578c0-5.2842407-4.1351624-9.8726616-9.2799377-11.0759163C265.6162415,3.1143632,137.8513336-7.4059777,10.2876091,5.3740463C4.4507918,6.0246773,0.2867157,10.449008,0,16.6965809v483.9443054C0.0005582,507.740387,6.3529363,513.342041,13.9634323,511.7172852z M378.7546692,462.2688599c-78.936676-6.7237244-158.3724213-5.3621216-237.4571228,4.0058594V22.9717102c79.3641815,1.3580036,158.8108521,10.9397583,237.4571228,28.7088089V462.2688599z M346.9484253,99.1359329C289.7813416,88.8404922,231.5274658,82.7880096,173.8045044,81.14534c-15.0106354-1.8704224-14.6300354-22.117897,0.6468964-22.7400017c58.8547668,1.6744766,118.2483063,7.8453789,176.5290985,18.3409538C365.8720093,80.2744598,361.6429749,101.1552887,346.9484253,99.1359329z M174.1954803,113.6625824c58.8298187,0.7144165,118.2947845,5.9135132,176.6049347,15.4524536c14.9554138,3.6207581,11.3333435,24.0187683-3.6719055,22.4512939c-57.1915588-9.3559265-115.4434814-14.4552002-173.1385498-15.155426C158.7832336,135.4257202,159.3031921,114.2249908,174.1954803,113.6625824z M93.3209991,81.669899c-15.0952454,0.6297607-46.2731972,2.8287964-46.2731972,2.8287964c-14.5621643-0.77034-15.4772091-20.9013252-0.9116135-22.7125969c15.2860832-1.2458267,30.8422737-2.2034378,46.2364998-2.8454361C107.7867966,59.1709633,107.9647064,80.6628571,93.3209991,81.669899z M93.5054779,138.2546844c-15.0389709,0.8719788-46.4586525,3.5867615-46.4586525,3.5867615c-14.0537529-0.7902374-15.9711533-20.2751617-1.093647-22.695961c15.3423576-1.5007629,30.898056-2.7128296,46.2350311-3.6024246C107.5771255,115.5099487,108.4524841,136.6436615,93.5054779,138.2546844z M347.3075867,203.9717712c-57.2277527-8.4262085-115.5070648-12.5656738-173.1556549-12.3234558c-14.9676056-0.9036865-15.3404999-21.7388611-0.0729065-22.749054c58.8009491-0.2603149,118.1900482,3.9738312,176.5422821,12.5654297C365.317688,184.3112793,362.4172058,205.3954315,347.3075867,203.9717712z M347.4886475,256.3551941c-57.1768799-7.4837646-115.4243927-10.6780853-173.1267853-9.4875641c-15.0598145-0.7169189-15.6835022-21.5478363-0.467804-22.7448883c58.8415527-1.2100983,118.2389984,2.0444031,176.5462189,9.6754608C365.4007263,236.3613586,362.3559875,257.6201172,347.4886475,256.3551941z M347.6716614,308.7650452c-57.210144-6.5442505-115.4596252-8.7843933-173.1248474-6.659729c-15.0860596,0.5559082-15.9237976-22.1782227-0.8377228-22.7341309c58.807312-2.1647949,118.2057343,0.1174316,176.548172,6.7928162C365.229126,288.848999,362.7773438,309.5232849,347.6716614,308.7650452z"/>
</svg>

<svg xmlns="http://www.w3.org/2000/svg" viewBox="0 0 402 512"><path fill="#1e88e5" d="M13.963 511.717c123.143-29.57 248.477-36.723 375.08-25.674 6.984.82 12.967-5.385 12.957-11.323V42.624c0-5.284-4.135-9.873-9.28-11.076C265.616 3.114 137.851-7.406 10.288 5.374 4.45 6.024.287 10.449 0 16.697V500.64c0 7.1 6.353 12.701 13.963 11.076m364.792-49.448c-78.937-6.724-158.373-5.362-237.457 4.006V22.972c79.364 1.358 158.81 10.94 237.457 28.709zM346.948 99.136c-57.167-10.296-115.42-16.348-173.143-17.99-15.011-1.871-14.63-22.119.646-22.74 58.855 1.674 118.249 7.845 176.53 18.34 14.891 3.528 10.662 24.41-4.033 22.39m-172.753 14.527c58.83.714 118.295 5.913 176.605 15.452 14.956 3.62 11.334 24.019-3.671 22.451-57.192-9.356-115.444-14.455-173.139-15.155-15.207-.985-14.687-22.186.205-22.748M93.321 81.67c-15.095.63-46.273 2.829-46.273 2.829-14.562-.77-15.477-20.902-.912-22.713a1174 1174 0 0 1 46.237-2.845c15.414.23 15.592 21.722.948 22.729m.184 56.585c-15.038.872-46.458 3.586-46.458 3.586-14.054-.79-15.971-20.275-1.094-22.696 15.343-1.5 30.898-2.712 46.235-3.602 15.39-.033 16.264 21.1 1.317 22.712m253.803 65.717c-57.228-8.426-115.507-12.566-173.156-12.324-14.968-.903-15.34-21.739-.073-22.749 58.801-.26 118.19 3.974 176.542 12.566 14.697 2.846 11.796 23.93-3.313 22.507m.18 52.383a1155 1155 0 0 0-173.126-9.487c-15.06-.717-15.684-21.548-.468-22.745 58.842-1.21 118.24 2.044 176.546 9.675 14.96 2.563 11.916 23.822-2.951 22.557m.184 52.41c-57.21-6.544-115.46-8.784-173.125-6.66-15.086.556-15.924-22.178-.838-22.734 58.807-2.165 118.206.118 176.548 6.793 14.972 2.685 12.52 23.36-2.585 22.601" data-iconColor="ReadtheDocs"/></svg>
